img/c6.svg

<svg width="160" height="160" viewBox="0 0 160 160" fill="none" xmlns="http://www.w3.org/2000/svg">
<g clip-path="url(#clip0)">
<path d="M10 26.6667H41.6667C44.4281 26.6667 46.6667 28.9053 46.6667 31.6668V101C46.6667 103.209 44.8758 105 42.6667 105H29.8333C27.6242 105 25.8333 103.209 25.8333 101V50.0304C25.8333 48.9258 24.9379 48.0304 23.8333 48.0304H10V26.6667Z" fill="#FFAB3D"/>
<path d="M10 20H39.8333C45.9085 20 50.8333 24.9249 50.8333 31V101C50.8333 103.209 49.0425 105 46.8333 105H33.1667C30.9575 105 29.1667 103.209 29.1667 101V45.1818C29.1667 44.0772 28.2712 43.1818 27.1667 43.1818H10V20Z" fill="url(#paint0_linear)"/>
<path d="M78.1322 70H68.8897C53.8548 70 41.6667 80.4467 41.6667 93.3333C41.6667 106.22 53.8548 116.667 68.8897 116.667H113.636C117.151 116.667 120 113.818 120 110.303C120 106.788 117.151 103.939 113.636 103.939H68.8897C62.0556 103.939 56.5156 99.1909 56.5156 93.3333C56.5156 87.4758 62.0556 82.7273 68.8897 82.7273H78.1322V70Z" fill="#FFAB3D"/>
<path d="M81.9608 48.3333H65.7578C40.4865 48.3333 20 68.4804 20 93.3333C20 118.186 40.4865 138.333 65.7578 138.333H139.394C146.172 138.333 151.667 132.839 151.667 126.061C151.667 119.282 146.172 113.788 139.394 113.788H65.7578C54.2708 113.788 44.9588 104.63 44.9588 93.3333C44.9588 82.0365 54.2708 72.8787 65.7578 72.8787H81.9608V48.3333Z" fill="url(#paint1_linear)"/>
</g>
<defs>
<linearGradient id="paint0_linear" x1="9.91897" y1="19.6321" x2="69.0116" y2="53.4606" gradientUnits="userSpaceOnUse">
<stop stop-color="#FECA52"/>
<stop offset="0.515625" stop-color="#FFCE5F"/>
<stop offset="1" stop-color="#FF644E"/>
</linearGradient>
<linearGradient id="paint1_linear" x1="19.7387" y1="47.9437" x2="82.3701" y2="157.133" gradientUnits="userSpaceOnUse">
<stop stop-color="#FECA52"/>
<stop offset="0.515625" stop-color="#FFCE5F"/>
<stop offset="1" stop-color="#FF644E"/>
</linearGradient>
<clipPath id="clip0">
<rect width="150" height="120" fill="white" transform="translate(5 20)"/>
</clipPath>
</defs>
</svg>

<svg width="160" height="160" viewBox="0 0 160 160" fill="none" xmlns="http://www.w3.org/2000/svg"><g clip-path="url(#a)"><path d="M10 26.667h31.667a5 5 0 0 1 5 5V101a4 4 0 0 1-4 4H29.833a4 4 0 0 1-4-4V50.03a2 2 0 0 0-2-2H10V26.667z" fill="#FFAB3D"/><path d="M10 20h29.833c6.075 0 11 4.925 11 11v70a4 4 0 0 1-4 4H33.167a4 4 0 0 1-4-4V45.182a2 2 0 0 0-2-2H10V20z" fill="url(#b)"/><path d="M78.132 70H68.89c-15.035 0-27.223 10.447-27.223 23.333 0 12.887 12.188 23.334 27.223 23.334h44.746a6.364 6.364 0 1 0 0-12.728H68.89c-6.834 0-12.374-4.748-12.374-10.606 0-5.857 5.54-10.606 12.374-10.606h9.242V70z" fill="#FFAB3D"/><path d="M81.96 48.333H65.759C40.487 48.333 20 68.48 20 93.333s20.486 45 45.758 45h73.636c6.778 0 12.273-5.494 12.273-12.272 0-6.779-5.495-12.273-12.273-12.273H65.758c-11.487 0-20.8-9.158-20.8-20.455 0-11.296 9.313-20.454 20.8-20.454H81.96V48.333z" fill="url(#c)"/></g><defs><linearGradient id="b" x1="9.919" y1="19.632" x2="69.012" y2="53.461" gradientUnits="userSpaceOnUse"><stop stop-color="#FECA52"/><stop offset=".516" stop-color="#FFCE5F"/><stop offset="1" stop-color="#FF644E"/></linearGradient><linearGradient id="c" x1="19.739" y1="47.944" x2="82.37" y2="157.133" gradientUnits="userSpaceOnUse"><stop stop-color="#FECA52"/><stop offset=".516" stop-color="#FFCE5F"/><stop offset="1" stop-color="#FF644E"/></linearGradient><clipPath id="a"><path fill="#fff" transform="translate(5 20)" d="M0 0h150v120H0z"/></clipPath></defs></svg>
